X: 1394
T: Down Among The Stouks
B: australian traditional tunes wiki
M:6/8
L:1/8
R: Jig
Q: 3/8=100
K:G
V:1 
D2G|:"G"B2B BDG|"G"B2B BDG|"G"BAG dcB|"D7"A2B AFD|"D7"A2A AFG|
"D7"A2A AFG|1"D7"ABc edc|"G"Bcd cBA:|2"D7"ABc AGF|"G"G3B2c||
"G"d2B "D7"def|"C"gfe "G"dcB|"C"c2c cde|"G"d2d BGB|"C"c2c cde|"G"d2d BAG|"A7"A2A ed^c|"D7"d2d cBA|
"G"B2B BDG|"G"B2B BDG|"G"BAG dcB|"D7"A2B AGF|"C"E2G "D7"FGA|"G"Bcd "C"edc|"G"Bcd "D7"cAF|"G"G3-G3||
% abcbook-tune_id 6342d53adf29784a17a0c7b3


% abcbook-boost 0
% abcbook-tablature 
% abcbook-transpose 
% abcbook-lastupdated 1665324362892
% abcbook-soundfonts 
% abcbook-repeats 1
% NFF Book 2014

